X:1
T:Who can express the noble acts
T:S S Wesley (1810 - 1876)
T:Psalms 106.2 & 86.9 & 10
T:Copyright  © 2004 The Choral Public Domain Library.   http://www.cpdl.org Edtion may be freely distributed, duplicated, performed or recorded.
T:from:   O give thanks unto the Lord
T:Who can express the noble acts
T:Copyright  © 2004 The Choral Public Domain Library.   http://www.cpdl.org Edtion may be freely distributed, duplicated, performed or recorded.
T:Copyright  © 2004 The Choral Public Domain Library.   http://www.cpdl.org Edtion may be freely distributed, duplicated, performed or recorded.
T:Copyright  © 2004 The Choral Public Domain Library.   http://www.cpdl.org Edtion may be freely distributed, duplicated, performed or recorded.
T:Copyright  © 2004 The Choral Public Domain Library.   http://www.cpdl.org Edtion may be freely distributed, duplicated, performed or recorded.
T:Copyright  © 2004 The Choral Public Domain Library.   http://www.cpdl.org Edtion may be freely distributed, duplicated, performed or recorded.
C:S S Wesley
C:(1810 - 1876)
Z:Psalms 106.2 & 86.9 & 10
Z:Copyright  © 2004 The Choral Public Domain Library.   http://www.cpdl.org
Z:Edtion may be freely distributed, duplicated, performed or recorded.
%%score 1 { ( 2 5 6 8 ) | ( 3 4 7 ) }
L:1/8
Q:1/4=126
M:4/4
K:Eb
V:1 treble nm="Soprano     /Treble   " snm="S."
V:2 treble nm="Organ" snm="Org."
V:5 treble 
V:6 treble 
V:8 treble 
V:3 bass 
V:4 bass 
V:7 bass 
V:1
"^Allegretto con moto" z8 | z8 | E4 E2 F2 | G6 B2 | A2 G2 F2 G2 | A2 c2 B2 E2 | %6
w: ||Who can e-|xpress, who|can e- xpress the|no- ble, no- ble|
"^NB  original at q = 152seems very rushed." G4 F3 F | E4 G2 B2 | e4 (e4- | e4 d2) c2 | B8 | %11
w: acts of the|Lord or show|forth all|_ _ His|praise?|
 z2 B2 A2 G2 | F4 G4 | A4 A2 G2 | (G2 F2) z4 | z2 B2 c2 d2 | e2 e4 d2 | (g3 e) c4 | (G2 c4) d2 | %19
w: or show forth|all His|praise, all his|praise? _|For thou, O|Lord, thou, O|Lord, _ art|good _ and|
 (d4 e4) | z2 e2 d2 c2 | (f3 d c4) | z2 c2 d2 c2 | (g2 ^f4) e2 | (d2 c2) (B2 =A2) | %25
w: gra- cious|u- nto all|them _ _|that call on|Thee, _ on|all _ that _|
 (G2 ^F2) (G2 E2) | D6 z2 | z2 G2 (d2 c2) | (c2 B6) | B2 =A2 (e2 A2) | B4 d4 | g4 d4 | %32
w: call _ on _|Thee,|of great _|mer- cy|u- nto all _|them, all|them that|
 d2 c2 e2 c2 | c8 | B4 z4 | z8 | z8 | z8 | z4 B,4 | D4 F3 F | B4 d4 | g4 c4 | c4 c4 | c4 B4 | %44
w: call, that call u-|pon|Thee.||||All|na- tions whom|Thou hast|made shall|come and|wo- rship|
 =A4 G4 | F8 | z4 C3 C | F4 _A4 | c4 f4 | (a4 =B4-) | B4 =B4 | (c4 e2) F2 | G4 F4 | E4 z4 | %54
w: Thee, O|Lord,|and shall|glo- ri-|fy thy|name, _|_ shall|glo- * ri-|fy thy|name.|
 z4 z2 B,2 | C2 D2 E2 F2 | G2 B2 (e4- | edec) B4 | B4 z2 B,2 | C2 D2 E2 A2 | A4 G2 G2 | %61
w: For|thou art good and|do- est wo-|* * * * ndrous|things: for|o- nly thou art|ho- ly, thou|
 F2 G2 A2 d2 | (c4 =B2) G2 | =A4 =B4 | c3 c c2 c2 | d4 =e4 | (f2 c2) (a2 g2- | g2 fe- e2) (dc) | %68
w: on- ly art the|Lord. _ For|thou art|great, and do- est|wo- ndrous|things, _ wo- *|* * * * ndrous _|
 (c2 B2) (e2 d2 | c2 B2 A2 G2 | c4 B4 |"^ritard" A6) A2 | !fermata!A6 z2 |"^a tempo" E4 E2 F2 | %74
w: things, _ wo- *|||* ndrous|things.|Who can e-|
 G6 B2 | A2 G2 F2 G2 | A2 c2 B2 E2 | G4 F3 F | E4 G2 B2 | e8 | (e4 d2) c2 | B8 | z2 B2 A2 G2 | %83
w: xpress, who|can e- xpress the|no- ble, no- ble|acts of the|Lord, or show|forth|all _ his|praise?|or show forth|
 F4 G4 | A4 (A2 G2) | (F2 G2 A2) (Bc) | (c2 =B2) z2 a2 | g2 c2 f4- | (f2 e2 _d4-) | (d2 c2 B4-) | %90
w: all his|praise, all, _|all _ _ his _|praise? _ or|show forth all|_ _ _||
 (B2 A4) G2 | F4 A2 c2 |"^ritard" f6 e2 | (e2 !fermata!d2)"^a tempo" z2 d2 | e2 =B2 c2 G2 | %95
w: * * his|praise, show forth|all his|praise? _ or|show forth all his|
 A2 _d2 (dc)(gf) | (fe"^ritard"=dc BA)(GF) | (F4 E4) |] %98
w: praise, or show _ forth _|all _ _ _ _ _ his _|praise? _|
V:2
 B,8 | C4 D4 | (E6 [DF]2 | G6) ([FB]2 | A2 G2 F2 G2 | A2 c2 B2 E2 | G4 F4 | E4) (G2 B2 | e4 e4- | %9
 e4 d2 c2 | B8-) | B2 (B2 A2 G2 | F4 G4 | A2) A4 G2 | (G2 F2) ([F-=A]4 | %15
 [FB]2) [_AB]2 [Gc]2 [Fd]2 | e6 d2 | g3 e c4 | G2 c4 d2 | (d4 e4) | z2 e2 d2 c2 | f3 d c4- | %22
 c2 c2 d2 c2 | g2 ^f4 (e2 | [^F=Ad]2 [Ec]2 [DB]2 [FA]2 | G2 ^F2 G2 E2 | D8) | z2 G2 d2 c2 | %28
 c2 B6- | B2 =A2 e2 A2 | B4 d4 | d4 d4 | d2 c2 e2 c2 | c8 | B4 (d2 f2 | b4 c'2 d'2 | %36
 e'2) (b2 =a2 g2 | f8-) | f4 z4 | D4 F4 | B4 d4 | g4 c4- | c4 c4 | c4 B4 | =A4 G4 | F2 C2 D2 =E2 | %46
 F2 G2 _A2 [Gc]2 | f2 [Ac]2 [FA]2 F2 | [FA]2 [CF]2 C2[I:staff +1] A,2 | %49
[I:staff -1] x2 D2 [DF]2 [FA]2 | [FA=B]2 [ABd]2 [ABdf]2 [FAB]2 | c2 G2 F2 [Fc]2 | %52
 [GB]2 G2 F2- [FB]2 | (E2[I:staff +1] B,2[I:staff -1] C2 D2 | E2 F2 G2)[I:staff +1] (B,2 | %55
 C2[I:staff -1] D2 E2 F2 | G2 B2 e4 | edec) B4- | B6 B,2 | C2 D2 E2 A2- | A4 G2 G2 | F2 G2 A2 d2 | %62
 c4 =B2 G2 | =A4 =B4 | [Gc]8 | d4 =e4 | f2 c2 [ca]2 [Bg]2- | [Bg]2 [Af][Ge]- [Ge]2 [Fd][Ec] | %68
 c2 B2 e2 d2 | c2 B2 A2 (G2 | c4) B4 | A8 | !fermata!A6 D2 |"^a tempo" E6 [DF]2 | [EG]6 [GB]2 | %75
 A2 G2 F2 G2 | A2 c2 B2 E2 | G4 F4 | E4 G2 B2 | e8- | e4 d2 c2 | B8 | G2 B2 A2 G2 | F4 G4 | %84
 A4- A2 G2 | F2 G2 A2 Bc | c2 =B2 z2 a2 | g2 c2 f4- | f2 e2 _d4- | d2 c2 B4- | B2 A4 G2 | %91
 F4 A2 c2 |"^ritard" f6 e2 | e2 !fermata!d2"^a tempo" z2 d2 | e2 =B2 c2 G2 | A2 _d2- dcgf | %96
 fe"^ritard"=dc BAGF | ([DF]4 E4) |] %98
V:3
 z8 | z8 | G,2 B,2 G,2 B,2 |[I:staff -1] E2 B,2 E2 D2 | C2 B,2 A,2 B,2 | [CE]2 D2 E2 C2 | %6
[I:staff +1] B,4 A,4 | G,4 x4 |[I:staff -1] C2[I:staff +1] B,2 A,2 G,2 | F,8- | %10
 F,2 B,2[I:staff -1] C2 D2 | E2[I:staff +1] G,2 A,2 B,2 | C4 C2 B,2 | A,4 E,2 E,2 | [E,C]4 F,4- | %15
 F,4 x4 | x8 | =B,2 C4 D2 | E4 C2 =B,2 | =B,4 C2 G,2 | E,2 G,2 =A,2 F,2 | B,2 F,2 B,4- | B,4 =A,4 | %23
 C6 x2 | x2[I:staff -1] ^F4 C2 |[I:staff +1] B,2 =A,2 B,2 [G,B,]2 | [^F,=A,]8 | z2 =B,2 C4 | F,8- | %29
 F,4 [^F,=A,]4 | [G,B,]4"^" [D,=A,]4 | B,,4 G,,4 | E,8 | F,8 | x8 |[I:staff -1] G2 F2 E2 D2 | %36
 B2 G2 =A2 B2 |[I:staff +1] C4- C3 D | D2 F,2 D,2 F,2 | B,2 F,2 B,2 F,2 | %40
[I:staff -1] D2 B,2 G2 D2 | B2 G2 F2 C2 | F2 C2 =E2 C2 | _E4 D4 | C4[I:staff +1] B,4 | %45
 =A,4 B,2 G,2 | =A,2[I:staff -1] C2 F2 =E2 | F2 F2 C2 [A,C]2 | C2[I:staff +1] A,2 [F,A,]2 [C,F,]2 | %49
 [F,A,=B,]2 [A,B,]2 B,2[I:staff -1] D2 |[I:staff +1] x8 | x8 | x2 B,2 A,4 | G,2 G,2 A,2 F,2 | %54
 G,2 B,2[I:staff -1] E2[I:staff +1] G,2 | A,2 F,2 G,2 B,2 | x8 | A,4 F,G,A,F, | A,2 G,F, G,2 G,2- | %59
 G,2 F,2 E,4 | B,6 x2 | x4 F,4 | G,6 x2 | x8 | x8 | x8 | x8 | x8 | x8 | x8 | A,4 G,4 | %71
"^ritard" F,4 _C4 | !fermata!B,8 | G,4 G,2 x2 | x8 | x2 B,2 A,2 B,2 | C2[I:staff -1] D2 E2 E2 | %77
[I:staff +1] G,B,[I:staff -1]E[I:staff +1]B, A,B,A,B, | %78
[I:staff -1] E[I:staff +1]B,G,B,[I:staff -1] GEDF | %79
 CE[I:staff +1]B,[I:staff -1]E[I:staff +1] A,[I:staff -1]E[I:staff +1]G,[I:staff -1]E | %80
[I:staff +1] F,A,[I:staff -1]E[I:staff +1]A, F,A,[I:staff -1]E[I:staff +1]A, | %81
[I:staff -1] D[I:staff +1]B,A,B, A,B,A,B, | G,2 G,,2 A,,2 B,,2 | x2[I:staff -1] C4 B,2 | %84
[I:staff +1] C,6 B,,2 | A,,4 D,,4 | G,,4 z2[K:treble] F2 | E6 D2 | C6 B,2 | A,6 G,2 | F,4 G,4 | %91
 [A,C]8 | _C8 | !fermata!B,4 z2 =B,,2 | x2 A,2 G,2 B,2 | A,2 B,2 C4 | x8 | A,4 G,4 |] %98
V:4
 x8 | x8 | E,,8- | E,,8- | E,,4 C,,4 | F,,4 G,,2 A,,2 | B,,8 | E,,8 | E,8- | E,8- | E,8- | %11
 E,2 E,2 F,2 G,2 | A,4 _D,4 | C,4 C,2 B,,2 | =A,,4 E,4 | D,4 A,4 | G,4 G,2 F,2 | E,4 A,4 | %18
 G,6 G,2 | C,6 z2 | E,6 E,2 | D,4 G,2 F,2 | =E,4 _E,4 | D,4 D,4- | D,8- | D,8- | D,2 D,4 D,2 | %27
 E,4 =E,4 | x8 | x8 | x8 | x8 | x8 | x8 | B,8- | B,8 | [B,C]8 | B,8- | B,2 z2 D,4 | B,,4 =A,,4 | %40
 G,,4 F,,4 | =E,,4 D,,4 | C,,4 B,,,4 | =A,,,4 B,,,4 | C,,8 | F,,8- | F,,4 C4 | [_A,C]4 [G,,G,]4 | %48
 [F,,F,]4 E,,4 | D,,8- | D,,4 D,,4 | E,,4 A,,,4 | B,,,8 | E,,8- | E,,6 E,,2- | E,,8- | E,,8- | %57
 E,,8- | E,,6 E,2- | E,2 D,2 C,4 | B,,6 B,,2 | A,,8 | G,,6 F,,2 | E,,4 D,,4 | C,,4 B,,4 | %65
 A,,4 G,,4 | F,,8- | F,,8 | B,,8- | B,,8- | B,,8- | B,,8- | B,,8 | E,,8- | E,,8- | E,,4 C,,4 | %76
 F,,4 G,,2 A,,2 | B,,8 | E,8- | E,8- | [E,-F,]8 | E,8- | E,2 E,,2 F,,2 G,,2 | A,,4 _D,4 | x8 | x8 | %86
 x5[K:treble] x3 | x8 | x8 | x8 | x8 | x8 | x8 | x8 | C,2 D,2 E,2 =E,2 | F,2 G,2 A,2 =A,2 | %96
 B,4 B,,4 | [E,,E,]8 |] %98
V:5
 x8 | x8 | x8 | x8 | E4 E4 | x8 | E6 D2 |[I:staff +1] G,2 B,2[I:staff -1] E2 [DF]2 | e2 d2 c2 B2 | %9
 A4 A4- | A2 A2 G2 F2 | G2 G2 D2 E2 | E4 E4 | E4[I:staff +1] A,2 B,2 |[I:staff -1] x2 E2 D2 C2 | %15
 x4 B4 | [EB]4 B2 A2 | G6 F2 | G4 F4 | F2 G2 E2 x2 | x4 F4- | F4 =E2 F2 | =A2 G2 F4 | %23
 =A4 x2 [GB]2 | x8 | D2 C2 D2 x2 | x8 | x2 G2- G2 G2 | [DF]4 [EG]2 [DF]2 | [CE]4 [CE]4 | D4 ^F4 | %31
 [DG]4 [GB]4 | [GB]6 [_GB]2 | B4 =A4 | D4 B2 [=Ac]2 | b2 =a2 g2 f2 | x8- | %37
 [=Ae]2 [Ac]2 [Ace]3 [Bd] | [Bd]4[I:staff +1] B,4 |[I:staff -1] D4 D4 | G4 B4 | c4 B4 | =A4 G4 | %43
 ^F2 =A4 G2- | G2 F4 =E2 | x8 | x8 | x8 | x8 | x8 | x8 | G2 [CE]4 E2 | E6 D2 | x8 | x8 | x8 | %56
 E2 [DF]2 [CEA]2 [B,DG]2 | [CF]4 DEFD | F2 ED E2 B,2 | B,6 [A,E-]2 | E6 E2 | D4 C4 | %62
 [DF]6 [=B,D]2 | C4 F4 | E4 =E4 | F4 B4 | [Ac]4 c4 | c4 A4 | [DA]4 [GB]2 [FA]2 | %69
 [EG]2 [DF]2 [CE]2 [B,D]2 | G2 F4 E2- | ECDE F_GEF | E2 D4 D2 | %73
 E[I:staff +1]B,G,B,[I:staff -1] E[I:staff +1]B,A,B, | %74
[I:staff -1] E[I:staff +1]B,G,B,[I:staff -1] E[I:staff +1]B,[I:staff -1]ED | %75
 CE[I:staff +1]B,[I:staff -1]E[I:staff +1] A,[I:staff -1]E[I:staff +1]B,[I:staff -1]E | %76
[I:staff +1] C[I:staff -1]ED[I:staff +1]B,[I:staff -1] E[I:staff +1]B,[I:staff -1]C[I:staff +1]A, | %77
[I:staff -1] E4 E2 D2 | x8 | e2 d2 c2 B2 | x8 | D2 D2 [CE]2 [DF]2 | EB,GB, DB,GE | FECE- EEB,E- | %84
 [A,E]EAE AE_D=E | CF=EC AFCF | DFGF =BGdB- | B=BcG =AcBd | G=BcE FAG_B | EGAC =DF=EG | %90
 C=EFC B,D_EB, | CEFE FEFE | z EFE FEFE | [FA]4 x2 [FA]2 | [EG]2 F2 G2 _D2 | C2 =E2 F4 | %96
 [GB]2 [FA][EG] [DF][CE][B,D][A,D] | x8 |] %98
V:6
 x8 | x8 | x8 | x8 | x8 | x8 | x8 | x8 | E8- | E2 C2 D2 E2 | D4 E2 F2 | x8 | x8 | x8 | x8 | B,8- | %16
 B,4[I:staff +1] B,2 =B,2 | x8 | x8 | x8 | x8 | x8 | x8 | x8 | x8 | x8 | x8 | x8 | x8 | x8 | x8 | %31
 x8 | x8 |[I:staff -1] F6 E2 | x8 | B8 | x8 | x8 | x8 | x8 | x8 | x8 | x8 | x8 | x8 | x8 | x8 | %47
 x8 | x8 | x8 | x8 | x8 | x8 | x8 | x8 | x8 | x8 | x8 | x8 | x8 | x8 | x8 | x8 | G8 | x8 | c8 | %66
 x8 | x8 | x8 | x8 | x8 | x8 | x8 | x8 | x8 | x8 | x8 | x8 | x8 | x8 | x8 | x8 | x8 | x8 | x8 | %85
 x8 | x8 | x8 | x8 | x8 | x8 | x8 | x8 | x8 | x8 | x8 | x8 | x8 |] %98
V:7
 x8 | x8 | x8 | x8 | x8 | x8 | x8 | x8 | x8 | x8 | x8 | x8 | x8 | x8 | x8 | x8 | x8 | x8 | x8 | %19
 x8 | x8 | x8 | x8 | x8 | x8 | x8 | x8 | x8 | x8 | x8 | x8 | x8 | x8 | x8 | x8 | x8 | x8 | x8 | %38
 x8 | x8 | x8 | x8 | x8 | x8 | x8 | x8 | x8 | x8 | x8 | x8 | x8 | x8 | x8 | x8 | x8 | x8 | x8 | %57
 x8 | x8 | x8 | x8 | x8 | x8 | x8 | x8 | x8 | x8 | x8 | x8 | x8 | x8 | x8 | x8 | x8 | x8 | x8 | %76
 x8 | x8 | x8 |[I:staff -1] C2[I:staff +1] B,2 A,2 G,2 | x8 | x8 | x8 | x8 | x8 | x8 | %86
 x5[K:treble] x3 | x8 | x8 | x8 | x8 | x8 | x8 | x8 | x8 | x8 | x8 | x8 |] %98
V:8
 x8 | x8 | x8 | x8 | x8 | x8 | x8 | x8 | x8 | x8 | x8 | x8 | x8 | x8 | x8 | x8 | x8 | x8 | x8 | %19
 x8 | x8 | x8 | x8 | x8 | x8 | x8 | x8 | x8 | x8 | x8 | x8 | x8 | x8 | x8 | x8 | x8 | x8 | x8 | %38
 x8 | x8 | x8 | x8 | x8 | x8 | x8 | x8 | x8 | x8 | x8 | x8 | x8 | x8 | x8 | x8 | x8 | x8 | x8 | %57
 x8 | x8 | x8 | x8 | x8 | x8 | x8 | x8 | x8 | x8 | x8 | x8 | x8 | x8 | x8 | x8 | x8 | x8 | x8 | %76
 x8 | x8 | x8 | x8 | x8 | x8 | x8 | x8 | x8 | x8 | x8 | x8 | x8 | x8 | x8 | x8 | x4 A4 | x8 | x8 | %95
 x8 | x8 | x8 |] %98

